X:1
T:Mrs. C. H. Morris
T:Mrs. C. H. M.
T:My Choice
%%score { ( 1 2 ) | ( 3 4 ) }
L:1/8
M:6/8
K:G
V:1 treble 
V:2 treble 
V:3 bass 
V:4 bass 
V:1
{/x} BAG BAG | GFE F3 | A^GA cBA | B3 d3 | BAG BAG | GFE F3 | ^cBA GFE | D3- D3 | %8
w: Oth\- ers may choose this vain|world if they will,|I * will fol\- * low|Je\- sus;|All else for\- sak\- ing, will|cleave to Him still,|I * will fol\- * low|Him. *|
w: Full\- y and free\- ly the|choice I have made,|I * will fol\- * low|Je\- sus;|All on the al\- tar for|Him I have laid,|I * will fol\- * low|Him. *|
w: Walk\- ing by faith where my|eyes can\- not see,|I * will fol\- * low|Je\- sus,|Hold\- ing the hand that was|wound\- ed for me,|I * will fol\- * low|Him. *|
w: Fair\- est of all in vten|thou\- sand is He,|I * will fol\- * low|Je\- sus;|Till in His glo\- ry the|King I shall see,|I * will fol\- * low|Him. *|
"^Chorus" A2 A AGA | B3 G3 | A2 A AGA | c3 B3 | d2 d dcB | d2 c (G2 A) | B>BB c2 B | A3 G3 |] %16
w: When\- so\- ev\- er He|needs me,|Where\- so\- ev\- er He|leads me,|What\- so\- ev\- er He|bids me do, *|I will be true to|Je\- sus.|
w: ||||||||
w: ||||||||
w: ||||||||
V:2
 DCB, DCB, | CCC C3 | F=F^F F2 F | G3 G3 | DCB, DCB, | DDC C3 | G2 F ED^C | D3- D3 | F2 F FDF | %9
 G3 D3 | F2 F FDF | FGA G3 | =F2 F FFF | E2 E (E2 _E) | D>DD F2 F | F3 D3 |] %16
V:3
 G,G,G, D,D,D, | D,D,D, A,3 | CB,C EDC | D3 B,3 | G,G,G, D,D,D, | D,D,D, A,3 | A,2 A, A,2 G, | %7
 F,3- F,3 | C2 C CB,D | D3 B,3 | C2 C CB,D | D3 D3 | B,2 B, G,G,G, | G,2 G, (C2 G,) | %14
 G,>G,G, E2 D | C3 [G,B,]3 |] %16
V:4
 G,,G,,G,, G,,G,,G,, | A,,A,,A,, D,3 | D,2 D, D,2 D, | G,3 G,3 | G,,G,,G,, G,,G,,G,, | %5
 A,,A,,A,, D,3 | G,,2 G,, G,,2 G,, | D,3- D,3 | D,2 D, D,D,D, | G,,B,,D, G,3 | D,2 D, D,D,D, | %11
 D,E,F, G,3 | G,2 G, G,,G,,G,, | C,2 C, C,3 | D,>D,D, D,2 D, | D,3 [G,,G,,]3 |] %16

